icons/svg/background-color.svg

<svg width="24" height="24" viewBox="0 0 24 24" fill="none" xmlns="http://www.w3.org/2000/svg">
<path d="M13.04 4.75H16.7C18.3802 4.75 19.2202 4.75 19.862 5.07698C20.4265 5.3646 20.8854 5.82354 21.173 6.38803C21.5 7.02976 21.5 7.86984 21.5 9.55V14.95C21.5 16.6302 21.5 17.4702 21.173 18.112C20.8854 18.6765 20.4265 19.1354 19.862 19.423C19.2202 19.75 18.3802 19.75 16.7 19.75H7.8C6.11984 19.75 5.27976 19.75 4.63803 19.423C4.07354 19.1354 3.6146 18.6765 3.32698 18.112C3 17.4702 3 16.6302 3 14.95V14.02" stroke="currentColor" stroke-width="1.5" stroke-linecap="round" stroke-linejoin="round"/>
<path d="M6.4068 2.81784L11.7915 8.20255M6.4068 2.81784L3.01029 6.21435C2.31435 6.91029 1.96638 7.25825 1.83601 7.6595C1.77867 7.83598 1.75 8.01927 1.75 8.20255M6.4068 2.81784L5.58894 2M11.7915 8.20255L8.395 11.5991C7.69906 12.295 7.3511 12.643 6.94985 12.7733C6.5969 12.888 6.2167 12.888 5.86375 12.7733C5.4625 12.643 5.11453 12.295 4.4186 11.5991L3.01029 10.1908C2.31435 9.49482 1.96638 9.14685 1.83601 8.7456C1.77867 8.56912 1.75 8.38584 1.75 8.20255M11.7915 8.20255H2.625H1.75M12.4215 12.2973L13.9067 9.84908L15.6509 12.162C16.1545 13.0342 15.8556 14.1495 14.9834 14.6531C13.4366 15.5461 11.661 13.9135 12.4215 12.2973Z" stroke="currentColor" stroke-width="1.5" stroke-linecap="round" stroke-linejoin="round"/>
</svg>

<svg xmlns="http://www.w3.org/2000/svg" width="24" height="24" fill="none" viewBox="0 0 24 24"><path stroke="currentColor" stroke-linecap="round" stroke-linejoin="round" stroke-width="1.5" d="M13.04 4.75h3.66c1.68 0 2.52 0 3.162.327a3 3 0 0 1 1.311 1.311c.327.642.327 1.482.327 3.162v5.4c0 1.68 0 2.52-.327 3.162a3 3 0 0 1-1.311 1.311c-.642.327-1.482.327-3.162.327H7.8c-1.68 0-2.52 0-3.162-.327a3 3 0 0 1-1.311-1.311C3 17.47 3 16.63 3 14.95v-.93"/><path stroke="currentColor" stroke-linecap="round" stroke-linejoin="round" stroke-width="1.5" d="m6.407 2.818 5.384 5.385M6.407 2.818 3.01 6.214c-.696.696-1.044 1.044-1.174 1.446-.057.176-.086.36-.086.543m4.657-5.385L5.589 2m6.202 6.203-3.396 3.396c-.696.696-1.044 1.044-1.445 1.174a1.76 1.76 0 0 1-1.086 0c-.401-.13-.75-.478-1.445-1.174L3.01 10.191c-.696-.696-1.044-1.044-1.174-1.445a1.8 1.8 0 0 1-.086-.543m10.042 0H1.75m10.672 4.094 1.485-2.448 1.744 2.313a1.824 1.824 0 0 1-.668 2.491c-1.546.893-3.322-.74-2.562-2.356"/></svg>
